X:1
T:Dance of The Reed Flutes
T:Danse des Mirlitons
T:(Dance of the Reed Flutes) From the Nutcracker 
T:Arr. By Sarah Bacon
T:Tchaikovsky
C:Arr. By Sarah Bacon
Z:Tchaikovsky
%%score 1 2 3 4
L:1/8
Q:1/4=60
M:2/4
K:D
V:1 treble nm="Flute" snm="Fl."
V:2 treble nm="Flute" snm="Fl."
V:3 treble nm="Flute" snm="Fl."
V:4 treble nm="Flute" snm="Fl."
V:1
"^\n" z4 | z4 | .f/.e/.f/.e/ .f.e | .ed/4f/4a/4d'/4 f'2 | .g'/.f'/.g'/.f'/ !>!e'/.d'/.a/.f/ | %5
 d2{/d'} c'2 | .e'/.e/.e/.e/ .=f.^f | .e'/.e/.e/.e/ .=f.^f | .e'/.e/.e/.e/ .e/.e/.e/.e/ | %9
 .e/.f/.g/.a/ g'e'/4c'/4g/4e/4 | .f/.e/.f/.e/ .f.e | .ed/4f/4a/4d'/4 f'2 | %12
 .g'/.f'/.g'/.f'/ !>!e'/.d'/.a/.f/ | d2{/d'} c'2 | .e'/.e/.e/.e/ .=f.^f | .e'/.e/.e/.e/ .=f.^f | %16
 .f'/.f/.f/.f/ .f/.e/.f/.e/ | .a/.^g/.a/.g/ .b/.a/.b/.a/ | .b/.a/.b/.a/ .b/.a/.b/.a/ | %19
 .b/.a/.b/.a/ .b/.a/.b/.a/ | .c/.c/.c/.c/ .c/.c/.e/.e/ | .c/.c/.d/.d/ .e/.e/.e/.e/ | %22
 .e/.e/.e/.e/ .e/.e/.e/.e/ | .c/.c/.e/.e/ .c/.c/.e/.e/ | .c/.d/.^d/.e/ .c/.=d/.^d/.e/ | %25
 .c/.d/.^d/.e/ .c/.=d/.^d/.e/ | .f/.e/.f/.e/ .f.e | .ed/4f/4a/4d'/4 f'2 | %28
 .g'/.f'/.g'/.f'/ !>!e'/.d'/.a/.f/ | d2{/d'} c'2 | .e'/.e/.e/.e/ .=f.^f | .e'/.e/.e/.e/ .=f.^f | %32
 .e'/.e/.e/.e/ .e/.e/.e/.e/ | .e/.f/.g/.a/ g'e'/4c'/4g/4e/4 | .f/.e/.f/.e/ .f.e | %35
 .ed/4f/4a/4d'/4 f'2 | .g'/.f'/.g'/.f'/ !>!e'/.d'/.a/.f/ | d2{/d'} c'2 | .e'/.e/.e/.e/ .=f.^f | %39
 .e'/.e/.e/.e/ .=f.^f | d'_b/4d'/4g'/4_b'/4- b'a'- | a' f'2 z |] %42
V:2
 z4 | z4 | .d/.c/.d/.c/ .d.c | .AA/4d/4f/4a/4 d'2 | .d'/.c'/.d'/.c'/ !>!b/.a/.f/.d/ | _B2{/_b} a2 | %6
 .b/.B/.B/.B/{/c} .B.A | .b/.B/.B/.B/{/c} .B.A | .d'/.d/.d/.d/ .d/.c/.B/.c/ | %9
 .d/.c/.B/.A/ e'c'/4g/4e/4c/4 | .d/.c/.d/.c/ .d.c | .AA/4d/4f/4a/4 d'2 | %12
 .d'/.c'/.d'/.c'/ !>!b/.a/.f/.d/ | _B2{/_b} a2 | .b/.B/.B/.B/{/c} .B.A | .b/.B/.B/.B/{/c} .B.A | %16
 .d'/.d/.d/.d/ .^d/.e/.^d/.e/ | .=f/.e/.=f/.e/ .f/.e/.f/.e/ | .e/.e/.e/.e/ .e/.e/.g/.g/ | %19
 .g/.g/.g/.g/ .g/.g/.g/.g/ | .B/.A/.B/.A/ .B/.A/.B/.A/ | .B/.A/.B/.A/ .B/.A/.B/.A/ | %22
 .B/.A/.B/.A/ .B/.A/.B/.A/ | .B/.A/.B/.A/ .B/.A/.B/.c/ | .A/.B/.=c/.^c/ .A/.B/.=c/.^c/ | %25
 .A/.B/.=c/.^c/ .A/.B/.=c/.^c/ | .d/.c/.d/.c/ .d.c | .AA/4d/4f/4a/4 d'2 | %28
 .d'/.c'/.d'/.c'/ !>!b/.a/.f/.d/ | _B2{/_b} a2 | .b/.B/.B/.B/{/c} .B.A | .b/.B/.B/.B/{/c} .B.A | %32
 .d'/.d/.d/.d/ .d/.c/.B/.c/ | .d/.c/.B/.A/ e'c'/4g/4e/4c/4 | .d/.c/.d/.c/ .d.c | %35
 .AA/4d/4f/4a/4 d'2 | .d'/.c'/.d'/.c'/ !>!b/.a/.f/.d/ | _B2{/_b} a2 | .b/.B/.B/.B/{/c} .B.A | %39
 .b/.B/.B/.B/{/c} .B.A | _bg/4b/4d'/4e'/4- e'e'- | e' d'2 z |] %42
V:3
 z4 | z4 | .A/.G/.A/.G/ .A.G | .GF/4A/4d/4f/4 a2 | .b/.a/.b/.a/ !>!g/.f/.d/.A/ | G2{/f} g2 | %6
 .g/.G/.G/.G/{/G} .^G.A | .g/.G/.G/.G/{/G} .^G.A | ._b/._B/.B/.B/ .=B/.B/.B/.B/ | %9
 .a/.a/.g/.g/ c'g/4e/4c/4A/4 | .A/.G/.A/.G/ .A.G | .GF/4A/4d/4f/4 a2 | %12
 .b/.a/.b/.a/ !>!g/.f/.d/.A/ | G2{/f} g2 | .g/.G/.G/.G/{/G} .^G.A | .g/.G/.G/.G/{/G} .^G.A | %16
 .b/.B/.B/.B/ .=c/.^c/.=c/.^c/ | .c/.d/.c/.d/ .d/.c/.d/.c/ | .c/.c/.c/.c/ .c/.c/.c/.c/ | %19
 .e/.e/.e/.e/ .c/.c/.c/.c/ | .G/.G/.G/.G/ .G/.G/.G/.G/ | .G/.G/.G/.G/ .G/.G/.G/.G/ | %22
 .G/.G/.G/.G/ .G/.G/.G/.G/ | .G/.G/.G/.G/ .G/.G/.G/.G/ | .G/.G/.G/.G/ .G/.G/.G/.G/ | %25
 .G/.G/.G/.G/ .G/.G/.G/.G/ | .A/.G/.A/.G/ .A.G | .GF/4A/4d/4f/4 a2 | .b/.a/.b/.a/ !>!g/.f/.d/.A/ | %29
 G2{/f} g2 | .g/.G/.G/.G/{/G} .^G.A | .g/.G/.G/.G/{/G} .^G.A | ._b/._B/.B/.B/ .=B/.B/.B/.B/ | %33
 .a/.a/.g/.g/ c'g/4e/4c/4A/4 | .A/.G/.A/.G/ .A.G | .GF/4A/4d/4f/4 a2 | %36
 .b/.a/.b/.a/ !>!g/.f/.d/.A/ | G2{/f} g2 | .g/.G/.G/.G/{/G} .^G.A | .g/.G/.G/.G/{/G} .^G.A | %40
 ec/4d/4_b/4d'/4 c'c'- | c' a2 z |] %42
V:4
 z4 | z4 | z4 | z4 | z4 | z4 | z4 | z4 | z4 | z4 | z4 | z4 | z4 | z4 | z4 | z4 | z4 | z4 | g3 =e | %19
 ^cd ^f2 | =e3 ^c | A=B d2 | c3 A | cA cA | z4 | e/d/c/B/ c/B/A/G/ | F z z2 | z4 | z4 | z4 | z4 | %31
 z4 | z4 | z4 | z4 | z4 | z4 | z4 | z4 | z4 | z4 | z4 |] %42

